X:22
T:May Snowfall
R:jig
C:Paul S. Cranford
O:Cape Breton Island
S:http://www.cranfordpub.com
D:currently unrecorded
B:currently unpublished in book form
Z:psc
H:                                                        copyrights Cranford Publications, SOCAN
L:1/8
Q:300
M:6/8
K:Bb
FGA Bcd|eGG G2 e|ded dcB|cdc AGF|
FGA Bcd|eGG G2 e|dfd eGA|[1B3 BAG:|[2B3 Bcd||
|:egg gfe|dff fed|cee edc|[1dfd Bcd|
egg gfe|def b2 g|fdB Fdc|B3 Bcd:|
[2dBd cAG|FGA Bcd|eGG G2 e|dfd eGA|B3 BAG|]
